Yosa-Max/apps/scalable/mplayer.svg

<?xml version="1.0" encoding="UTF-8"?>
<svg id="SVGRoot" version="1.1" viewBox="0 0 48 48" xmlns="http://www.w3.org/2000/svg" xmlns:xlink="http://www.w3.org/1999/xlink">
 <defs id="defs866">
  <linearGradient id="linearGradient1485" x1="27.0625" x2="26.875" y1="40.312527" y2="-8.0624733" gradientTransform="matrix(.75862069 0 0 .75862069 3.6594827 12.905172)" gradientUnits="userSpaceOnUse">
   <stop id="stop1479" style="stop-color:#253444" offset="0"/>
   <stop id="stop1481" style="stop-color:#405a75" offset="1"/>
  </linearGradient>
 </defs>
 <rect id="rect4148" x="2.7586215" y="4.2759023" width="42.482758" height="39.448235" style="fill:url(#linearGradient1485)"/>
 <path id="rect4151" d="m2.7586206 3.517241c-0.4203047 0-0.7586207 0.3383448-0.7586207 0.7586207v39.448276c0 0.420275 0.338316 0.75862 0.7586207 0.75862h42.482758c0.420305 0 0.758621-0.338345 0.758621-0.75862v-39.448276c0-0.4202759-0.338316-0.7586207-0.758621-0.7586207h-41.724138zm0.7586207 3.0344827h40.965518v36.413793h-40.965518z" style="fill:#34495e"/>
 <circle id="path4155" cx="43.724125" cy="5.034523" r=".75862068" style="fill:#ecf0f1"/>
 <rect id="rect4153" x="3.517242" y="6.551764" width="40.965519" height=".77293432" style="fill:#b836d8"/>
 <path id="rect4171" d="m1.9999999 43.724138c0 0.420275 0.338316 0.75862 0.7586207 0.75862h42.482758c0.420305 0 0.758621-0.338345 0.758621-0.75862z" style="fill:#2c3e4f"/>
 <rect id="rect4211" x="3.5172412" y="37.655212" width="29.586206" height=".75862068" style="fill:#b836d8"/>
 <circle id="path4162" cx="32.724133" cy="38.034153" r="1.8965514" style="fill:#b836d8"/>
 <circle id="circle4164" cx="32.724133" cy="38.034153" r="1.1379306" style="fill:#dadfe1"/>
 <path id="path4240" d="m18.689655 29.310344v-15.172413l10.62069 8.169813z" style="fill-rule:evenodd;fill:#b836d8"/>
</svg>

<?xml version="1.0" encoding="UTF-8" standalone="no"?>
<svg
   xmlns:dc="http://purl.org/dc/elements/1.1/"
   xmlns:cc="http://creativecommons.org/ns#"
   xmlns:rdf="http://www.w3.org/1999/02/22-rdf-syntax-ns#"
   xmlns:svg="http://www.w3.org/2000/svg"
   xmlns="http://www.w3.org/2000/svg"
   xmlns:xlink="http://www.w3.org/1999/xlink"
   width="48px"
   height="48px"
   viewBox="0 0 48 48"
   version="1.1"
   id="SVGRoot">
  <defs
     id="defs866">
    <linearGradient
       id="linearGradient1483">
      <stop
         style="stop-color:#253444;stop-opacity:1"
         offset="0"
         id="stop1479" />
      <stop
         style="stop-color:#405a75;stop-opacity:1"
         offset="1"
         id="stop1481" />
    </linearGradient>
    <linearGradient
       gradientTransform="matrix(0.75862069,0,0,0.75862069,3.6594827,12.905172)"
       xlink:href="#linearGradient1483"
       id="linearGradient1485"
       x1="27.0625"
       y1="40.312527"
       x2="26.875"
       y2="-8.0624733"
       gradientUnits="userSpaceOnUse" />
  </defs>
  <metadata
     id="metadata869">
    <rdf:RDF>
      <cc:Work
         rdf:about="">
        <dc:format>image/svg+xml</dc:format>
        <dc:type
           rdf:resource="http://purl.org/dc/dcmitype/StillImage" />
        <dc:title></dc:title>
      </cc:Work>
    </rdf:RDF>
  </metadata>
  <rect
     y="4.2759023"
     x="2.7586215"
     height="39.448235"
     width="42.482758"
     id="rect4148"
     style="fill:url(#linearGradient1485);fill-opacity:1;stroke:none;stroke-width:0.75862068" />
  <path
     id="rect4151"
     d="m 2.7586206,3.517241 c -0.4203047,0 -0.7586207,0.3383448 -0.7586207,0.7586207 v 38.6896553 0.758621 c 0,0.420275 0.338316,0.75862 0.7586207,0.75862 H 3.5172413 45.241379 C 45.661684,44.482758 46,44.144413 46,43.724138 V 4.2758617 C 46,3.8555858 45.661684,3.517241 45.241379,3.517241 H 3.5172413 Z M 3.5172413,6.5517237 H 44.482759 V 42.965517 H 3.5172413 Z"
     style="opacity:1;fill:#34495e;fill-opacity:1;stroke:none;stroke-width:0.75862068;stroke-opacity:1" />
  <circle
     r="0.75862068"
     cy="5.034523"
     cx="43.724125"
     id="path4155"
     style="opacity:1;fill:#ecf0f1;fill-opacity:1;stroke:none;stroke-width:0.75862068;stroke-opacity:1" />
  <rect
     y="6.551764"
     x="3.517242"
     height="0.77293432"
     width="40.965519"
     id="rect4153"
     style="opacity:1;fill:#b836d8;fill-opacity:1;stroke:none;stroke-width:0.75862068;stroke-opacity:1" />
  <path
     id="rect4171"
     d="m 1.9999999,43.724138 c 0,0.420275 0.338316,0.75862 0.7586207,0.75862 H 45.241379 C 45.661684,44.482758 46,44.144413 46,43.724138 Z"
     style="opacity:1;fill:#2c3e4f;fill-opacity:1;stroke:none;stroke-width:0.07586207;stroke-linecap:square;stroke-linejoin:miter;stroke-miterlimit:4;stroke-dasharray:none;stroke-dashoffset:0;stroke-opacity:1" />
  <rect
     y="37.655212"
     x="3.5172412"
     height="0.75862068"
     width="29.586206"
     id="rect4211"
     style="opacity:1;fill:#b836d8;fill-opacity:1;stroke:none;stroke-width:0.75862068;stroke-opacity:1" />
  <circle
     r="1.8965514"
     cy="38.034153"
     cx="32.724133"
     id="path4162"
     style="opacity:1;fill:#b836d8;fill-opacity:1;stroke:none;stroke-width:0.94827569;stroke-linecap:round;stroke-linejoin:miter;stroke-miterlimit:4;stroke-dasharray:none;stroke-opacity:0.29943501" />
  <circle
     style="opacity:1;fill:#dadfe1;fill-opacity:1;stroke:none;stroke-width:0.56896532;stroke-linecap:round;stroke-linejoin:miter;stroke-miterlimit:4;stroke-dasharray:none;stroke-opacity:0.29943501"
     id="circle4164"
     cx="32.724133"
     cy="38.034153"
     r="1.1379306" />
  <path
     id="path4240"
     d="M 18.689655,29.310344 V 14.137931 l 10.62069,8.169813 z"
     style="fill:#b836d8;fill-opacity:1;fill-rule:evenodd;stroke:none;stroke-width:0.5867874px;stroke-linecap:butt;stroke-linejoin:miter;stroke-opacity:1" />
</svg>
